!!!OTL: La mao lu
!!!ARE: Asia, China,ÿHebei, Zhangbei
!! IV, 62
!!!SCT: C1638
!!!YEM: Copyright 1995, estate of Helmut Schaffrath.
**kern
*ICvox
*Ivox
*M2/4
*k[b-e-]
*B-:
{8.ddd
16ddd
4ccc
=1
8.ddd
16ddd
4ccc
=2
8ddd
16ccc
16ddd
16ccc
16ddd
16ccc
16gg
=3
2bb-}
=4
{8.ccc
16bb-
8ccc
16ddd
16bb-
=5
8gg
16bb-
16gg
8ff
16dd
16ff
=6
16gg
16gg
16ff
16gg
8.bb-
16dd
=7
2cc}
=8
{8.ccc
16bb-
8ccc
16ddd
16bb-
=9
8gg
16bb-
16gg
8ff
16dd
16ff
=10
16gg
16gg
16ff
16gg
8.bb-
16dd
=11
2cc}
==
!!!AGN: Xiaodiao
!!!AMT: simple duple
!!!AIN: vox
!!!EED: Helmut Schaffrath
!!!EEV: 1.0
*-
